X:30
T:Rondo For The Pipes. CAM2.[31]
B:Anon MS#2, early 19thC, Northumbria, Cocks Coll.
Z:Village Music Project 2016 Steve Mansfield
M:2/4
L:1/8
Q:2/4=40
C:"by McKenzie"
K:G
D | GG A/G/A/>B/ | G/>g/f/>e/ d>B | cc B/>A/B/>c/ | A/>G/A/>B/ A/>D/E/>F/ |
GG A/>G/A/>B/ | G/>g/f/>e/ d>c | BB A/>G/A/>B/ | G[GB]G :|
|: B | AA d/>c/A/>c/ | B/>d/g/>f/ g/>d/B/>G/ | AA/B/ d/>c/A/>c/ | B/>d/g/>f/ gd |
ee/f/ a/g/f/e/ | d/B/b/a/ g/f/e/d/ | d/B/g/f/ e/d/c/B/ | B2 A/>D/E/>F/ |
GB A/>G/A/>B/ | G/>g/f/>e/ d>B | c/>e/a/>c/ B/>d/g/>B/ | A/>G/A/>B/ A/>D/E/>F/ |
GB A/>G/A/>B/ | G/>g/f/>e/ dg/d/ | BB A/>G/A/>B/ | GBG |]

